X: 4
T: Ladies In The Center
R: polka
M: 2/4
L: 1/8
K: Cmaj
|:C>D EG|A>G A/B/c-|cA Gc|ec/e/ d2|
C>D EG|A>G A/B/c-|cA GE|DE C2:|
|:eg ge|dc AG|cB/A/ Gc|ec/e/ d2|
eg ge|dc AG|cB/A/ GE|DE C2:|

